X:1
T:The South Wind
C:Traditional
O:Irish
Z:ABC by Thornton Rose, 2002, from ABC by Mary Lou Knack.
R:Waltz
L:1/4
M:3/4
K:G
c | "G"B>A G | B>c d | "D7" A2 A | A2 c | "G"B>A G | "C"E>D E | "G"G2 G | G2 :|
d | "G"g2 g | "C"g>f e | "G"d2 d | d2 c | B>A G | B>c d | "D7"A2 A | A2 d |
"C"g2 g | g>f e | "G"d2 d | d2 c | B>A G | "D7"A<c F | "G" G3- | G2 :|


